X:51
T:Grannas flecker
R:sl\"angpolska
H:efter Pelle Fors, via br\"oderna Hellstr\"om
H:En visa "grannas flecker g{\aa}r i vall med korna"
H:\"Aven i Am, #14, #150, #172, #208
A:\"Osterg\"otland
B:Variant 2 SvL \"Ogl nr 349, efter Carl August M{\aa}nsson
Z:id:hn-sp-51
M:3/4
L:1/16
K:Gm
D2 | G3A BcBA G^FGA | BABc d4 B4 | d3^f gagf cAc=e |
gag^f d_edc BcBA | G3A BcBA G^FGA | BABc d4 B4 | d3^f gagf cAc=e |
[1 gag^f d6 :|2 gag^f d8 |: d3^f gagf cAc=e | gag^f d4 B4 |
BABd fgfd BABd | fgfd c4 A4 | A2BA GABc d_edc |1 BcBA G^FAF G4 :|
[2 BcBA G^FAF G2 ||
P:variant fr{\aa}n SvL
D2 | G3A BcBA G^FGA | BABc d4 B4 | d3^f gagf c=Bc=e |
{=f}gag^f d_edc BcBA | G3A BcBA G^FGA | BABc d4 B4 |
d3^f gagf c=Bc=e |1 {=f}gag^f d6 :|2 {=f}gag^f d8 ||
|: d3^f gagf c=Bc=e | gag^f d4 B4 | BFDF Bdfd BFDF | Bdfd c4 A4 |
{A}BABc d_edc BcBA |1 G^FAF [G8G,8] :|2 G^FAF [G6G,6] ||

